X:1
T:Zombie Tango
T:Zombie Tango
T:James Meredith Arranged by Stephan Bloch
C:James Meredith Arranged by Stephan Bloch
%%score ( 1 2 ) 3 4 5
L:1/8
Q:1/4=150
M:4/4
K:G
V:1 treble nm="Vibraphone" snm="Vib."
V:2 treble 
V:3 alto nm="Viola" snm="Vla."
V:4 bass nm="Euphonium" snm="Euph."
V:5 bass nm="Bassoon" snm="Bsn."
V:1
!ff! !>!.[Ge]2 z !>!.[Fd] !>!.[Ge]2 !>!!tenuto![GB]2 | [Fd]2 z2 z4 | %2
 !>!.[Ec] !>![Ec]2 !>!.[Ec] !>!.[Ec]!>!.[Ec]!>![Ed][Ec] | !^![FB]2 z !^![Bf] !^![fb] z z2 | %4
!f! z2 .[G,D]2 [G,C]2 .[G,B,]2 | z2 .A,.A, .B,.B, .A,2 | z2 .[G,B,]2 ([G,C]2 .[G,B,]2) | %7
 !>!.[B,^D] z z2 z2 (B/A/G/F/ | !>!.E) z z2 z2 (ED/C/ | B,) z z2 z2 B/A/G/F/ | %10
 !>!.E z .[G,B,]2 ([G,C]2 .[G,B,]2) |!ff! z .[FB]2 .[FB] .[FB] z !fermata!z2 | %12
"^pizz."!mp! z .[EG]2 .[^DF] .[EG]2 .[B,E]2 | z .[^DF]2 .[B,D] .E2 z2 | %14
 z .[EG].[EG].[FA] .[GB].[GB] z2 | z .[GB].[FA].[EG] .[^DF]2 z2 | %16
 z .[B,E].[B,E].[^DF] .[EG].[EG] z2 | z .[EG].[FA].[EG] .[^DF]2 z2 | z8 | %19
!p! ([B,B]2 [C_B]2 [^CA]2 [D_A]2) | ([_EG]2 [D^G]2 [^CA]2 [=C_B]2) | %21
!<(! !//-!G3 ^G3!ff! (=B/A/=G/F/)!<)! | !>!.E z !>!.B z (!>!!tenuto!c2 !>!.[EB])D/C/ | %23
 B, z !>!.A!>!.A !>!.B!>!.B B/A/G/F/ | E z !>!.B z (!>!!tenuto!c2 !>!.[EB])D/C/ | %25
 !>!.[B,B]!>!.B z (!>!c B4) | !>!.E z !>!.B z (!>!!tenuto!c2 !>!.B) z | %27
 z2 !>!.A!>!.A !>!.B!>!.B !>!A2 | !>!!tenuto!G!>!.G z !>!.F !>!.G!>!.G !>!E2 | %29
 z2 !>!.[FB]2 !>!.[Be] z z2 | z8 | z .[Ff]2 .[^D^d] [Ee]4 | z8 | z .[GB].[FA].[EG] .[^DF]4 | %34
 z z z2 z4 | z .[EG].[FA].[EG] [^DF]4 | [_Be][A_e][_Ad][G^c] [F=c][=F=B][E_B][_E=A] | %37
 z4 !///-!_A2 _B2 | z8 | z4 .[FB]2 z2 | .[Be]2 z2 z4 | %41
!ff! !>!.E z !>!.B z (!>!!tenuto!c2 !>!.[EB])D/C/ | B, z !>!.A!>!.A !>!.B!>!.B B/A/G/F/ | %43
 E z !>!.B z (!>!!tenuto!c2 !>!.[EB])D/C/ | !>!.[B,B]!>!.B z (!>!c B4) | %45
 !>!.E z !>!.B z (!>!!tenuto!c2 !>!.B) z | z2 !>!.A!>!.A !>!.B!>!.B !>!A2 | %47
 !>!!tenuto!G!>!.G z !>!.F !>!.G!>!.G !>!E2 | z2 !>!.[FB]2 !>!.[Be] z z2 | z8 | z4 !fermata!z4 | %51
 z2 .[CE]2 z2 .[CE]2 | .[CE]2 z2 z4 | z2 .[EG]2 z2 .[EG]2 | .[EG]2 (G2 F2 E2) | (^D3 =D) (^D3 E) | %56
 .F2 z2 z4 | z2 .[B,E]2 z2 .[B,E]2 | z2 .[B,E]2 z4 | z8 | z2!p! .[d_e]2 z2 .[de]2 | [d_e]2 z2 z4 | %62
 .[de]2 .[^c^d]2 .[=c=d]2 .[B^c]2 | .[_B=c]2 (G2 F2 E2) | (^D3 =D) (^D3 E) | .F2 z2 z4 | z8 | z8 | %68
 z8 | z8 | z8 | z8 | z8 | z8 | z8 | z8 | z8 | z8 | z8 | z8 | z8 |] %81
V:2
 x8 | x8 | x8 | x8 | x8 | x8 | x8 | x8 | x8 | x8 | x8 | x8 | x8 | x8 | x8 | x8 | x8 | x8 | x8 | %19
 x8 | x8 | x8 | x8 | x6 A2 | x8 | x8 | x8 | x8 | x8 | x8 | x8 | x8 | x8 | x8 | x8 | x8 | x8 | x8 | %38
 x8 | x8 | x8 | x8 | x6 A2 | x8 | x8 | x8 | x8 | x8 | x8 | x8 | x8 | x8 | x8 | x8 | x8 | x8 | x8 | %57
 x8 | x8 | x8 | x8 | x8 | x8 | x8 | x8 | x8 | x8 | x8 | x8 | x8 | x8 | x8 | x8 | x8 | x8 | x8 | %76
 x8 | x8 | x8 | x8 | x8 |] %81
V:3
!f! !>!.vB2 z !>!.uA !>!.vB2 !>!!tenuto!uG2 | !>!.vA2 z2 z4 | %2
 !>!.vG !>!uG2 !>!.uG !>!.G!>!.G!>!GG | !^!F2 z !^!u^C !^!v^D2 z2 |!f! z2 .uG,2 (G,2 .G,2) | %5
 z2 .vF,.F, .F,.F, .F,2 | z2 .uG,2 (G,2 .G,2) | !>!.B, z z2 z4 | z2 .u[G,B,]2 ([G,C]2 .[G,B,]2) | %9
 z2 .v[F,A,].[F,A,] .[F,B,].[F,B,] .[F,A,]2 | z2 .uG,2 (G,2 .G,2) | %11
!ff! z !>!.v^D2 !>!.vD !>!.uD z !fermata!z2 |"^pizz."!mp! z G,2 G, G,2 G,2 | z F,2 F, G,2 z2 | %14
 z B,B,^D EE z2 | z E^DC B, z z2 | z G,G,A, B,B, z2 | z B,CB, A,2 z2 | z8 | %19
!p!"^arco" (vB,CB,C B,CB,C) | (B,CB,C B,CB,C) |!<(! !//!F6 z2!<)! | %22
!ff!"^Unison" !>!.v[EE] z !>!.[EG] z (!>!!tenuto![EG]2 !>!.[EG]) z | %23
 z2 !>!.v[^DF]!>!.[DF] !>!.[DF]!>!.[DF] !>!.[DF]2 | z2 !>!.u[EG] z (!>!!tenuto![EG]2 !>!.[EG]) z | %25
 !>!.u[^DF]!>!.[DF] z (!>![EG] [DF]4) | !>!.vE z !>!.[EG] z (!>!!tenuto![EG]2 !>!.[EG]) z | %27
 z2 !>!.v[^DF]!>!.[DF] !>!.[DF]!>!.[DF] !>![DF]2 | %28
 !>!!tenuto!u[B,E]!>!.v[B,E] z !>!.v[B,^D] !>!.[B,E]!>!.[B,E] !>![G,C]2 | z2 !>!.v^D2 !>!.G z z2 | %30
 z .vG,2 F, G,2 E,2 | z8 | z .uG,.G,.A, .B,.B, z2 | z8 | z .uG,.G,.A, .B,.B, z2 | z8 | %36
 v=FE_ED ^C=CB,_B, | z4 !///![GA]4 | z8 | z4"^pizz." ^D2 z2 | G2 z2 z4 | %41
!ff!"^Unison""^arco" !>!.v[EE] z !>!.[EG] z (!>!!tenuto![EG]2 !>!.[EG]) z | %42
 z2 !>!.v[^DF]!>!.[DF] !>!.[DF]!>!.[DF] !>!.[DF]2 | z2 !>!.u[EG] z (!>!!tenuto![EG]2 !>!.[EG]) z | %44
 !>!.u[^DF]!>!.[DF] z (!>![EG] [DF]4) | !>!.vE z !>!.[EG] z (!>!!tenuto![EG]2 !>!.[EG]) z | %46
 z2 !>!.v[^DF]!>!.[DF] !>!.[DF]!>!.[DF] !>![DF]2 | %47
 !>!!tenuto!u[B,E]!>!.v[B,E] z !>!.v[B,^D] !>!.[B,E]!>!.[B,E] !>![G,C]2 | z2 !>!.^D2 !>!.G z z2 | %49
!>(! ^G,8!>)! | (A,4 !fermata!B,4) | (vC3 B,) (C3 B,) | (C2 .E2) .D2 .C2 | (B,3 ^A,) (B,3 A,) | %54
 B,8 | z2 .^D2 z2 .E2 | .F2 (C2 B,2 A,2) | (_A,3 G,) (A,G,A,G, | ._A,) z z2!p! (A,4 | %59
 =A,4) !fermata!B,4 | (vC3 B,) (C3 B,) | C2 (E2 D2 C2) | (B,3 ^A,) (B,3 A,) | B,8 | %64
 z2 .v^D2 z2 .E2 | .F2 (C2 B,2 A,2) | z8 | z8 | z8 | z8 | z8 | z8 | z8 | z8 | z8 | z8 | z8 | z8 | %78
 z8 | z8 | z8 |] %81
V:4
!ff! !>!.B,2 z !>!.A, !>!.B,2 !>!!tenuto!G,2 | !>!.A,2 z D, (_E,2 D,2) | %2
 !>!.=E, !>!E,2 !>!.E, !>!.E,!>!.E,!>!E,E, | !^!F,2 z !^!B,, !^!F,2 z2 | %4
!f! .E,2 z .B,, !tenuto!E,2 !tenuto!E,2 | .B,,2 z .B,, !tenuto!B,,!tenuto!B,,(!tenuto!C,B,,) | %6
 .E,2 z .B,, !tenuto!E,2 !tenuto!E,2 | .B,, z (A,2 G,2 F,2) | E,8 | F,8 | G,8 | %11
!ff! z !>!.B,,2 !>!.B,, !>!.B,, z !fermata!z2 |"^Very staccato"!p! .E,2 z .B,, .E,2 .E,2 | %13
 .B,,2 z .B,, .E,2 .B,,2 | .E,2 z .B,, .E,2 .E,2 | .B,,2 z .B,, .B,,.B,,.C,.B,, | %16
 .E,2 z .B,, .E,2 .E,2 | .B,, z z2 z4 |!f! !tenuto!G,2 !tenuto!F,2 !tenuto!G,2 !tenuto!E,2 | %19
!p! (B,,2 _B,,6) | (=B,CB,C B,CB,C) |!<(! TB,,6 z2!<)! | %22
!ff! !>!.E, z !>!.E, z !>!.E, z !>!.E,(!>!E, | !>!.B,,) z !>!.B,, z !>!.B,, z !>!.B,,(!>!B,, | %24
 !>!.E,) z !>!.E, z !>!.E, z !>!.E,(!>!E, | !>!.B,,) z z2 !>!.B,!>!.A,!>!.G,!>!.F, | %26
 !>!.E, z !>!.E, z !>!.E, z !>!.E,(!>!E, | !>!.B,,) z !>!.B,, z !>!.B,, z !>!.B,,(!>!B,, | %28
 !>!!tenuto!E,)!>!.E, z !>!.^D, !>!.E,!>!.E, !>!C,2 | !>!.B,,2 !>!.B,2 !>!.B, z z2 | %30
 z .vE,2 F, G,2 E,2 | z8 | z .E,.E,.F, .G,.G, z2 | z8 | z .E,.E,.F, .G,.G, z2 | z8 | %36
 G,G, z F, G,G, E,2 | z2 !>!.=F, z TA,4 | z4!p! .B,,2 z2 | .E,2 z2 z4 | z2 .B,2 z4 | %41
!ff! !>!.E, z !>!.E, z !>!.E, z !>!.E,(!>!E, | !>!.B,,) z !>!.B,, z !>!.B,, z !>!.B,,(!>!B,, | %43
 !>!.E,) z !>!.E, z !>!.E, z !>!.E,(!>!E, | !>!.B,,) z z2 !>!.B,!>!.A,!>!.G,!>!.F, | %45
 !>!.E, z !>!.E, z !>!.E, z !>!.E,(!>!E, | !>!.B,,) z !>!.B,, z !>!.B,, z !>!.B,,!>!B,, | %47
 !>!!tenuto!E,!>!.E, z !>!.^D, !>!.E,!>!.E, !>!C,2 | B,,2 !>!.B,2 !>!.B, z z2 |!>(! (^G,8!>)! | %50
 A,4 !fermata!B,4) | (C3 B,) (C3 B,) | (C2 .E2) .D2 .C2 | (B,3 ^A,) (B,3 A,) | B,8 | %55
 z2 .B,2 z2 .^C2 | ^D2 (C2 B,2 B,2) | (_A,3 G,) (A,G,A,G, | ._A,) z z2!p! (A,4 | %59
 =A,4) !fermata!B,4 | (C3 B,) (C3 B,) | C2 (E2 D2 C2) | (B,3 ^A,) (B,3 A,) | B,8 | %64
 z2 .B,2 .^C2 z2 | .^D2 (C2 B,2 A,2) | z8 | z8 | z8 | z8 | z8 | z8 | z8 | z8 | z8 | z8 | z8 | z8 | %78
 z8 | z8 | z8 |] %81
V:5
!ff! !>!.E,2 z !>!.B,, !>!.E,2 !>!!tenuto!E,2 | !>!.D,2 z D, (_E,2 D,2) | %2
 !>!.C, !>!C,2 !>!.C, !>!.C,!>!.C,!>!C,C, | !^!B,,2 z2 !^!B,,2 z2 |!f! .E,2 z .B, E,2 E,2 | %5
 .B,2 z .B, !tenuto!B,!tenuto!B,(!tenuto!CB,) | .E,2 z .B, !tenuto!E,2 !tenuto!E,2 | %7
 !>!.B, z z2 z4 | z8 | z8 | .E,2 z .E, !tenuto!E,2 !tenuto!E,2 | %11
!ff! z !>!.B,2 !>!.B, !>!.B, z !fermata!z2 |"^Very staccato"!p! .E,2 z .B, .E,2 .E,2 | %13
 .B,2 z .B, .E,2 .B,2 | .E,2 z .B, .E,2 .E,2 | .B,2 z .B, .B,.B,.C.B, | .E,2 z .B, .E,2 .E,2 | %17
 .B, z z2 z4 |!f! !tenuto!G,2 !tenuto!F,2 !tenuto!G,2 !tenuto!E,2 |!p! B,,8- | B,,8 | %21
!<(! TB,,6 z2!<)! |!ff! !>!.E, z !>!.E, z !>!!tenuto!E, z !>!.E,(!>!E, | %23
 !>!.B,,) z !>!.B,, z !>!.B,, z !>!.B,,(!>!B,, | !>!.E,) z !>!.E, z !>!.E, z !>!.E,(!>!E, | %25
 !>!.B,,) z z2 !>!.B,!>!.A,!>!.G,!>!.F, | !>!.E, z !>!.E, z !>!.E, z !>!.E,(!>!E, | %27
 !>!.B,,) z !>!.B,, z !>!.B,, z !>!.B,,(!>!B,, | %28
 !>!!tenuto!E,)!>!.E, z !>!.B,, !>!.E,!>!.E, !>!C,2 | !>!.B,,2 !>!.B,,2 !>!.E, z z2 | %30
 .E,2 z .B, .E,2 .E,2 | .B,2 z .B, .E,.E,.B,.B, | .E,2 z .B, .E,2 .E,2 | .B,2 z .B, (!>!C2 B,2) | %34
 .E,2 z .B, .E,2 .E,2 | .E,2 z2 B,2 B,2 | G,G, z F, G,G, E,2 | !>!.B,, z z2 TG,4 | z4!p! .B,,2 z2 | %39
 .E,2 z2 z4 | z4 .E,2 z2 |!ff! !>!.E, z !>!.E, z !>!!tenuto!E, z !>!.E,(!>!E, | %42
 !>!.B,,) z !>!.B,, z !>!.B,, z !>!.B,,(!>!B,, | !>!.E,) z !>!.E, z !>!.E, z !>!.E,(!>!E, | %44
 !>!.B,,) z z2 !>!.B,!>!.A,!>!.G,!>!.F, | !>!.E, z !>!.E, z !>!.E, z !>!.E,(!>!E, | %46
 !>!.B,,) z !>!.B,, z !>!.B,, z !>!.B,,!>!B,, | !>!!tenuto!E,!>!.E, z !>!.B,, !>!.E,!>!.E, !>!C,2 | %48
 B,,2 !>!.B,,2 !>!.E, z z2 | z8 | z4 !fermata!z4 | .A,2 z2 .E,2 z2 | .A,2 z2 z4 | %53
 .E,2 z2 .B,,2 z2 | .E,2 z2 z4 | .B,,2 z2 .C,2 z2 | .B,,2 z2 z4 | .E,2 z2 .E,2 z2 | .E, z z2 z4 | %59
 z8 |!p! .A,2 z .E, .A,2 .E,2 | .E, z z2 z4 | .E,2 z .B, .E,2 .B,2 | .E, z z2 z4 | %64
 .B,,2 z (=F, .^F,2) .F,,2 | .B,,2 z2 z4 | z8 | z8 | z8 | z8 | z8 | z8 | z8 | z8 | z8 | z8 | z8 | %77
 z8 | z8 | z8 | z8 |] %81

